lib/svgs/shortcut.svg

<?xml version="1.0" encoding="UTF-8"?>
<svg width="16px" height="16px" viewBox="0 0 16 16" version="1.1" xmlns="http://www.w3.org/2000/svg" xmlns:xlink="http://www.w3.org/1999/xlink">
    <!-- Generator: sketchtool 51.3 (57544) - http://www.bohemiancoding.com/sketch -->
    <title>shortcut</title>
    <desc>Created with sketchtool.</desc>
    <defs></defs>
    <g id="Icons" stroke="none" stroke-width="1" fill="none" fill-rule="evenodd">
        <g id="Deprecated" transform="translate(-83.000000, -387.000000)" fill="#000000">
            <g id="shortcut" transform="translate(83.000000, 387.000000)">
                <path d="M6.66666667,12.1981982 C6.66666667,12.9669708 6.38889167,13.6261234 5.83333333,14.1756757 C5.277775,14.725228 4.60961351,15 3.82882883,15 C3.04804414,15 2.38138414,14.7237265 1.82882883,14.1711712 C1.27627351,13.6186159 1,12.9489529 1,12.1621622 C1,11.3933895 1.27627351,10.7297325 1.82882883,10.1711712 C2.38138414,9.61260982 3.03903523,9.33333333 3.8018018,9.33333333 L5.46999979,9.33333333 L5.46999979,6.66666667 L3.8018018,6.66666667 C3.03903523,6.66666667 2.38138414,6.38739018 1.82882883,5.82882883 C1.27627351,5.27026748 1,4.60360748 1,3.82882883 C1,3.04804414 1.27627351,2.38138414 1.82882883,1.82882883 C2.38138414,1.27627351 3.04804414,1 3.82882883,1 C4.60961351,1 5.277775,1.27477203 5.83333333,1.82432432 C6.38889167,2.37387662 6.66666667,3.03302919 6.66666667,3.8018018 L6.66666667,5.46999979 L9.33333333,5.46999979 L9.33333333,3.8018018 C9.33333333,3.03302919 9.61110833,2.37387662 10.1666667,1.82432432 C10.722225,1.27477203 11.3903865,1 12.1711712,1 C12.9579619,1 13.6261234,1.27627351 14.1756757,1.82882883 C14.725228,2.38138414 15,3.04804414 15,3.82882883 C15,4.60360748 14.725228,5.27026748 14.1756757,5.82882883 C13.6261234,6.38739018 12.9669708,6.66666667 12.1981982,6.66666667 L10.5299997,6.66666667 L10.5299997,9.33333333 L12.1981982,9.33333333 C12.9669708,9.33333333 13.6261234,9.61260982 14.1756757,10.1711712 C14.725228,10.7297325 15,11.3933895 15,12.1621622 C15,12.9489529 14.725228,13.6186159 14.1756757,14.1711712 C13.6261234,14.7237265 12.9579619,15 12.1711712,15 C11.3903865,15 10.722225,14.725228 10.1666667,14.1756757 C9.61110833,13.6261234 9.33333333,12.9669708 9.33333333,12.1981982 L9.33333333,10.5299997 L6.66666667,10.5299997 L6.66666667,12.1981982 Z M6.66666667,9.33333333 L9.33333333,9.33333333 L9.33333333,6.66666667 L6.66666667,6.66666667 L6.66666667,9.33333333 L6.66666667,9.33333333 Z M5.46999979,3.83008989 C5.46999979,3.37837592 5.309611,2.99377016 4.98882862,2.67626107 C4.66804624,2.35875197 4.28180386,2.19999981 3.83008989,2.19999981 C3.3849225,2.19999981 3.00195336,2.35875197 2.68117098,2.67626107 C2.36038859,2.99377016 2.19999981,3.37837592 2.19999981,3.83008989 C2.19999981,4.28180386 2.36038859,4.66804624 2.68117098,4.98882862 C3.00195336,5.309611 3.38819574,5.46999979 3.83990971,5.46999979 L5.46999979,5.46999979 L5.46999979,3.83008989 Z M3.83990971,10.5299997 C3.38819574,10.5299997 3.00195336,10.6903885 2.68117098,11.0111709 C2.36038859,11.3319533 2.19999981,11.7149224 2.19999981,12.1600898 C2.19999981,12.6118038 2.36038859,12.9980462 2.68117098,13.3188285 C3.00195336,13.6396109 3.38819574,13.7999997 3.83990971,13.7999997 C4.2850771,13.7999997 4.66804624,13.6396109 4.98882862,13.3188285 C5.309611,12.9980462 5.46999979,12.615077 5.46999979,12.1699096 L5.46999979,10.5299997 L3.83990971,10.5299997 Z M10.5299997,5.46999979 L12.1699096,5.46999979 C12.615077,5.46999979 12.9980462,5.309611 13.3188285,4.98882862 C13.6396109,4.66804624 13.7999997,4.28180386 13.7999997,3.83008989 C13.7999997,3.37837592 13.6412475,2.99377016 13.3237385,2.67626107 C13.0062294,2.35875197 12.6216236,2.19999981 12.1699096,2.19999981 C11.7181957,2.19999981 11.3319533,2.35875197 11.0111709,2.67626107 C10.6903885,2.99377016 10.5299997,3.37837592 10.5299997,3.83008989 L10.5299997,5.46999979 L10.5299997,5.46999979 Z M10.5299997,12.1699096 C10.5299997,12.615077 10.6903885,12.9980462 11.0111709,13.3188285 C11.3319533,13.6396109 11.7181957,13.7999997 12.1699096,13.7999997 C12.6216236,13.7999997 13.0062294,13.6396109 13.3237385,13.3188285 C13.6412475,12.9980462 13.7999997,12.6118038 13.7999997,12.1600898 C13.7999997,11.7149224 13.6396109,11.3319533 13.3188285,11.0111709 C12.9980462,10.6903885 12.615077,10.5299997 12.1699096,10.5299997 L10.5299997,10.5299997 L10.5299997,12.1699096 Z"></path>
            </g>
        </g>
    </g>
</svg>

<svg xmlns="http://www.w3.org/2000/svg" viewBox="0 0 16 16">
    <path d="M6.667 12.198c0 .769-.278 1.428-.834 1.978A2.748 2.748 0 0 1 3.83 15c-.781 0-1.448-.276-2-.829A2.736 2.736 0 0 1 1 12.162c0-.769.276-1.432.829-1.99a2.68 2.68 0 0 1 1.973-.839H5.47V6.667H3.802a2.68 2.68 0 0 1-1.973-.838 2.745 2.745 0 0 1-.829-2c0-.781.276-1.448.829-2a2.725 2.725 0 0 1 2-.829c.78 0 1.449.275 2.004.824.556.55.834 1.209.834 1.978V5.47h2.666V3.802c0-.769.278-1.428.834-1.978A2.748 2.748 0 0 1 12.17 1c.787 0 1.455.276 2.005.829.55.552.824 1.219.824 2 0 .775-.275 1.441-.824 2a2.676 2.676 0 0 1-1.978.838H10.53v2.666h1.668c.769 0 1.428.28 1.978.838.55.559.824 1.222.824 1.991 0 .787-.275 1.457-.824 2.01A2.721 2.721 0 0 1 12.17 15c-.78 0-1.449-.275-2.004-.824a2.683 2.683 0 0 1-.834-1.978V10.53H6.667v1.668zm0-2.865h2.666V6.667H6.667v2.666zM5.47 3.83c0-.452-.16-.836-.481-1.154A1.588 1.588 0 0 0 3.83 2.2c-.445 0-.828.159-1.149.476-.32.318-.481.702-.481 1.154 0 .452.16.838.481 1.159.321.32.707.481 1.159.481h1.63V3.83zm-1.63 6.7c-.452 0-.838.16-1.159.481-.32.321-.481.704-.481 1.15 0 .45.16.837.481 1.158.321.32.707.481 1.159.481.445 0 .828-.16 1.149-.481.32-.321.481-.704.481-1.15V10.53H3.84zm6.69-5.06h1.64c.445 0 .828-.16 1.149-.481.32-.321.481-.707.481-1.159 0-.452-.159-.836-.476-1.154A1.571 1.571 0 0 0 12.17 2.2c-.452 0-.838.159-1.159.476-.32.318-.481.702-.481 1.154v1.64zm0 6.7c0 .445.16.828.481 1.149.321.32.707.481 1.159.481.452 0 .836-.16 1.154-.481.317-.321.476-.707.476-1.159 0-.445-.16-.828-.481-1.149a1.568 1.568 0 0 0-1.15-.481H10.53v1.64z"/>
</svg>
